X: 8
T: Missa Caput / Kyrie
N: Derived from Ock1003a-Missa_Caput-Kyrie.krn
C: Johannes Ockeghem
%%abc-version 2.0
%%abcx-abcm2ps-target-version 5.9.1 (29 Sep 2008)
%%abc-creator hum2abc beta
%%abcx-conversion-date 2019/02/17 07:26:13
%%abc-edited-by Jesse Rodin
%%abc-edited-by Will Watson 24/2/2012
%%abcx-initial-encoding-date 2012/02/24/
%%humdrum-veritas 1974116011
%%humdrum-veritas-data 1697363751
%%linebreak <none>
%%barnumbers 0
L: 1/4
M: 3/1
Q: 1/2=120
%%staves [1 2 3 4]
V: 1 clef=treble
V: 2 clef=treble-8
V: 3 clef=treble-8
V: 4 clef=bass
K: C
[V:1] D12- | 
[V:2] A12 | 
[V:3] D12 | 
[V:4] z12 | 
[V:1] D12 | 
[V:2] B12 | 
[V:3] D6E2^F4 | 
[V:4] B,,12- | 
[V:1] D6E2G4 | 
[V:2] B4d8 | 
[V:3] G4B8 | 
[V:4] B,,12 | 
[V:1] F3DF3GA4 | 
[V:2] d6B2A4 | 
[V:3] A4B2d4c2 | 
[V:4] D,12- | 
[V:1] D4z4A4 | 
[V:2] z2F4F2A3B | 
[V:3] B2A4GAF3E | 
[V:4] D,12 | 
[V:1] A4G6E2 | 
[V:2] c6d2e4 | 
[V:3] E8G4 | 
[V:4] C,12- | 
[V:1] E6C4E2 | 
[V:2] c4G8 | 
[V:3] A4c8 | 
[V:4] C,12 | 
[V:1] D2^F4G2F2E2 | 
[V:2] z4d8 | 
[V:3] B4A8 | 
[V:4] D,12 | 
[V:1] G8z4 | 
[V:2] d2d4c2B3A | 
[V:3] G6E2D4 | 
[V:4] z4z4B,,4 | 
[V:1] G6F2E4 | 
[V:2] c3BG8 | 
[V:3] C8c4 | 
[V:4] E,12 | 
[V:1] D4G4z2F2 | 
[V:2] z4d3ef4 | 
[V:3] _B8A4 | 
[V:4] G,8D,4 | 
[V:1] G2A2B4A4 | 
[V:2] e2e4d2f4- | 
[V:3] G8F4- | 
[V:4] E,4B,,4D,4 | 
[V:1] D3EF3GA3G | 
[V:2] f4d3cA4 | 
[V:3] F3GA4D2F2 | 
[V:4] D,12 | 
[V:1] E4z4A4 | 
[V:2] c3de2d4^c2 | 
[V:3] G2A4F2E4 | 
[V:4] C,4A,,8 | 
[V:1] A4G6F2 | 
[V:2] d4B8 | 
[V:3] D4d8 | 
[V:4] z4z4B,,4 | 
[V:1] F3GA2GA_B2A2- | 
[V:2] A4d8 | 
[V:3] z4A4F4- | 
[V:4] D,12- | 
[V:1] A2F2E6G2 | 
[V:2] B4c2d2e4 | 
[V:3] F2EFG4c4 | 
[V:4] D,4C,8 | 
[V:1] F2D4B,2A,4 | 
[V:2] d4z2d4B2 | 
[V:3] A4F2G2A2D2- | 
[V:4] D,12- | 
[V:1] D3EF2G3FD2 | 
[V:2] A4B2G4F2 | 
[V:3] D2F4E2D4 | 
[V:4] D,4B,,8 | 
[V:1] E2E4A3GFE | 
[V:2] A8c4 | 
[V:3] C4E2F2E2A2- | 
[V:4] A,,12- | 
[V:1] F2E4D4^C2 | 
[V:2] z2c4A3GA2 | 
[V:3] A4E2F2E4 | 
[V:4] A,,12 | 
[V:1] D12 ||  
[V:2] F3GA4A4 ||  
[V:3] D12 ||  
[V:4] D,12 ||  
[V:1] [M:2/1]E8 | 
[V:2] [M:2/1]^c8- | 
[V:3] [M:2/1]A8- | 
[V:4] [M:2/1]z8 | 
[V:1] ^F4A4- | 
[V:2] c8 | 
[V:3] A8 | 
[V:4] z8 | 
[V:1] A2G2G4- | 
[V:2] d8 | 
[V:3] B8 | 
[V:4] z8 | 
[V:1] G2F2E4 | 
[V:2] z4A4 | 
[V:3] c8 | 
[V:4] z8 | 
[V:1] D4F4 | 
[V:2] B4d4 | 
[V:3] d8 | 
[V:4] z8 | 
[V:1] E4A4- | 
[V:2] c6d2 | 
[V:3] z4A4 | 
[V:4] z8 | 
[V:1] A4F4 | 
[V:2] e4c4 | 
[V:3] A8 | 
[V:4] z8 | 
[V:1] G4D4 | 
[V:2] d4B4 | 
[V:3] B8 | 
[V:4] z8 | 
[V:1] E8 | 
[V:2] A8 | 
[V:3] c8 | 
[V:4] z8 | 
[V:1] D8 | 
[V:2] z4f4 | 
[V:3] d8- | 
[V:4] z8 | 
[V:1] A4B4 | 
[V:2] f8- | 
[V:3] d8 | 
[V:4] z8 | 
[V:1] c2d4c2 | 
[V:2] f8 | 
[V:3] z4d4- | 
[V:4] z8 | 
[V:1] B2A2A4- | 
[V:2] f4e4 | 
[V:3] d4c4 | 
[V:4] z8 | 
[V:1] A4^G4 | 
[V:2] d8 | 
[V:3] B8 | 
[V:4] z8 | 
[V:1] A8- | 
[V:2] e4d4 | 
[V:3] A8 | 
[V:4] z4D,4 | 
[V:1] A8 | 
[V:2] f8 | 
[V:3] d8 | 
[V:4] D,8 | 
[V:1] z8 | 
[V:2] g4a4 | 
[V:3] c8 | 
[V:4] E,4F,4 | 
[V:1] D4E2G2- | 
[V:2] g4e4 | 
[V:3] B8 | 
[V:4] G,8- | 
[V:1] G2E2F4 | 
[V:2] d8 | 
[V:3] G4A4 | 
[V:4] G,4D,4 | 
[V:1] G4A4 | 
[V:2] z4d4 | 
[V:3] G4D4 | 
[V:4] E,4F,4 | 
[V:1] D4E4 | 
[V:2] B6G2 | 
[V:3] z8 | 
[V:4] G,8 | 
[V:1] F4G4 | 
[V:2] A4z2G2- | 
[V:3] d4B4- | 
[V:4] D,4G,4- | 
[V:1] D4z4 | 
[V:2] G2E2F4 | 
[V:3] B2G2A4 | 
[V:4] G,4D,4 | 
[V:1] G8 | 
[V:2] z4c4 | 
[V:3] G4E4 | 
[V:4] E,4C,4 | 
[V:1] F4D4 | 
[V:2] A4B4 | 
[V:3] D4F4 | 
[V:4] D,8 | 
[V:1] C4E2G2- | 
[V:2] E4A4 | 
[V:3] G4E4 | 
[V:4] E,4C,4 | 
[V:1] G2F2D4 | 
[V:2] B4G4 | 
[V:3] D8 | 
[V:4] B,,8 | 
[V:1] C8- & E8- | 
[V:2] c8- | 
[V:3] z4A4 | 
[V:4] A,,8- | 
[V:1] C8- & E8- | 
[V:2] c8- | 
[V:3] A6GF | 
[V:4] A,,8- | 
[V:1] C8 & E8 ||  
[V:2] c8 ||  
[V:3] E8 ||  
[V:4] A,,8 ||  
[V:1] [M:3/1]E6F2G4 | 
[V:2] [M:3/1]c12 | 
[V:3] [M:3/1]G4A4G4 | 
[V:4] [M:3/1]C,12 | 
[V:1] G4F6E2 | 
[V:2] e4d8 | 
[V:3] c4z2B4A2 | 
[V:4] C,4D,8 | 
[V:1] E3FG2A4G2 | 
[V:2] G4c3de3d | 
[V:3] c2d2e4c3B | 
[V:4] C,12 | 
[V:1] F2E4D4^C2 | 
[V:2] c2B4A4G2 | 
[V:3] A2G4F2E4 | 
[V:4] z12 | 
[V:1] D12 | 
[V:2] A4z4B4 | 
[V:3] z4A4F4 | 
[V:4] D,12 | 
[V:1] z4z4G4 | 
[V:2] c6d2e4 | 
[V:3] G2FGA2G2E4 | 
[V:4] C,12 | 
[V:1] F3G_B2A4F2 | 
[V:2] A12 | 
[V:3] D4d8 | 
[V:4] D,12 | 
[V:1] G6E2G3A | 
[V:2] G8E4 | 
[V:3] c4B8- | 
[V:4] E,12 | 
[V:1] B12- | 
[V:2] D12 | 
[V:3] B4G8 | 
[V:4] B,,8G,,4- | 
[V:1] B4c6B2 | 
[V:2] z4E4F4 | 
[V:3] B4A8 | 
[V:4] G,,4A,,8 | 
[V:1] G4F2G2A4 | 
[V:2] G4z4c4 | 
[V:3] z2G2A2E2F4 | 
[V:4] B,,4A,,8 | 
[V:1] D4E2G4F2 | 
[V:2] B12- | 
[V:3] G6E2D4 | 
[V:4] G,,12 | 
[V:1] D4z4D4- | 
[V:2] B12 | 
[V:3] z4D2E2D2G2- | 
[V:4] B,,6A,,2B,,4 | 
[V:1] D2E6C3B, | 
[V:2] B4c4z2c2 | 
[V:3] G6E2F4 | 
[V:4] G,,4A,,8 | 
[V:1] B,4z4B4 | 
[V:2] d2e4dcB2G2 | 
[V:3] G4B2c2d2e2- | 
[V:4] G,,12- | 
[V:1] c2d3cBAG2B2- | 
[V:2] G8D4 | 
[V:3] e2d2B4z2d2- | 
[V:4] G,,12 | 
[V:1] B2A4G2A4 | 
[V:2] z2F2D2E2F4 | 
[V:3] d2c2B4A2F2 | 
[V:4] z12 | 
[V:1] G2E4A3GG2 | 
[V:2] C4c4d2e2 | 
[V:3] E4A4B2c2 | 
[V:4] z12 | 
[V:1] F2E3DD4^C2 | 
[V:2] B2c3BA4G2 | 
[V:3] d2A3GF2E4 | 
[V:4] z12 | 
[V:1] D12 |]  
[V:2] A12 |]  
[V:3] D12 |]  
[V:4] D,12 |]  



